svgs/light/lamp-street.svg

<svg xmlns="http://www.w3.org/2000/svg" viewBox="0 0 512 512"><!-- Font Awesome Pro 6.0.0-alpha2 by @fontawesome - https://fontawesome.com License - https://fontawesome.com/license (Commercial License) --><path d="M398.732 239.195C378.943 230.396 357.586 226.068 336 224.654V112C336 50.25 285.75 0 224 0H112C50.25 0 0 50.25 0 112V496C0 504.844 7.156 512 16 512S32 504.844 32 496V112C32 67.891 67.875 32 112 32H224C268.125 32 304 67.891 304 112V224.658C282.439 226.076 261.107 230.402 241.338 239.189C181.553 265.764 137.699 321.598 128.219 388.652C126.25 403.131 137.875 416 152.406 416H487.596C502.127 416 513.752 403.131 511.783 388.652C502.303 321.604 458.492 265.773 398.732 239.195ZM161.473 384C171.723 333.383 206.635 289.635 254.336 268.43C272.893 260.182 294.934 256 319.85 256H320.205C345.129 256 367.174 260.184 385.729 268.436C433.439 289.654 468.346 333.459 478.537 384H161.473ZM320.031 480C299.199 480 281.605 466.584 274.979 448H241.648C249.082 484.471 281.387 512 320.031 512S390.98 484.471 398.414 448H365.084C358.457 466.584 340.863 480 320.031 480Z"/></svg>

<svg xmlns="http://www.w3.org/2000/svg" viewBox="0 0 512 512"><!--! Font Awesome Pro 6.0.0-alpha3 by @fontawesome - https://fontawesome.com License - https://fontawesome.com/license (Commercial License) --><path d="M398.7 239.2C378.9 230.4 357.6 226.1 336 224.7V112c0-61.75-50.25-112-111.1-112H112C50.25 0 0 50.25 0 112v384C0 504.8 7.156 512 16 512S32 504.8 32 496v-384C32 67.89 67.88 32 112 32H224c44.13 0 80 35.89 80 80v112.7c-21.56 1.418-42.89 5.744-62.66 14.53c-59.79 26.57-103.6 82.6-113.1 149.7C126.3 403.3 137.9 416 152.4 416h335.2c14.53 0 26.16-12.68 24.19-27.16C502.3 321.8 458.5 265.8 398.7 239.2zM161.5 384C171.7 333.4 206.6 289.6 254.3 268.4C272.9 260.2 294.9 256 319.8 256h.3555c24.92 0 46.97 4.184 65.52 12.44C433.4 289.7 468.3 333.5 478.5 384H161.5zM320 480c-20.83 0-38.43-13.42-45.05-32H241.6c7.434 36.47 39.74 64 78.38 64s70.95-27.53 78.38-64h-33.33C358.5 466.6 340.9 480 320 480z"/></svg>
